X: 371
U:~=!turn!
M:C
L:1/8
K:G aeolian
d | ~g>ab<g d<gb>g | a/g/f/d/ c>=e f>Aa<f | ~g>ab<g d<gb>g | b/a/g/f/ d<^f g/g/g g<d |
g>ab>g a<^fg>=e | f>dc<f c<Fc<A | F<GG>F D<G~G>g | f>c d/c/B/A/ B<GG |]


